sources/design/Outline/cedilla.svg

<svg:svg xmlns:cc="http://creativecommons.org/ns#" xmlns:dc="http://purl.org/dc/elements/1.1/" xmlns:inkscape="http://www.inkscape.org/namespaces/inkscape" xmlns:rdf="http://www.w3.org/1999/02/22-rdf-syntax-ns#" xmlns:sodipodi="http://sodipodi.sourceforge.net/DTD/sodipodi-0.dtd" xmlns:svg="http://www.w3.org/2000/svg" xml:space="preserve" width="1000" height="1000" version="1.1" style="clip-rule:evenodd;fill-rule:evenodd;image-rendering:optimizeQuality;shape-rendering:geometricPrecision;text-rendering:geometricPrecision" viewBox="0 0 1000 1000" id="svg10" sodipodi:docname="cedilla.svg" inkscape:version="1.1.1 (3bf5ae0d25, 2021-09-20)"><svg:text text-anchor="middle" x="213.84598" y="805.09558" id="bottom" inkscape:label="bottom" style="clip-rule:evenodd;fill-rule:evenodd;image-rendering:optimizeQuality;shape-rendering:geometricPrecision;text-rendering:geometricPrecision">✛</svg:text><svg:metadata id="metadata14"><rdf:RDF><cc:Work rdf:about=""><dc:format>image/svg+xml</dc:format><dc:type rdf:resource="http://purl.org/dc/dcmitype/StillImage" /><dc:title /></cc:Work></rdf:RDF></svg:metadata><sodipodi:namedview pagecolor="#ffffff" bordercolor="#666666" borderopacity="1" objecttolerance="10" gridtolerance="10" guidetolerance="10" inkscape:pageopacity="0" inkscape:pageshadow="2" inkscape:window-width="1920" inkscape:window-height="1009" id="namedview12" showgrid="false" inkscape:zoom="0.84890884" inkscape:cx="298.61864" inkscape:cy="848.14761" inkscape:window-x="0" inkscape:window-y="60" inkscape:window-maximized="1" inkscape:current-layer="svg10" showguides="true" inkscape:guide-bbox="true" inkscape:document-rotation="0" inkscape:pagecheckerboard="0"><sodipodi:guide position="0,1000" orientation="0,1" id="guide16" inkscape:label="" inkscape:locked="true" inkscape:color="rgb(0,0,255)" /><sodipodi:guide position="1763.3122,2036.1693" orientation="1000,0" id="guide18" /><sodipodi:guide position="0,200" orientation="0,1" id="guide20" inkscape:label="base" inkscape:locked="true" inkscape:color="rgb(0,0,255)" /><inkscape:grid type="xygrid" id="grid24" originx="-473.37552" originy="-489.69235" /><sodipodi:guide position="0,0" orientation="0,1" id="guide34" inkscape:label="bottom" inkscape:locked="true" inkscape:color="rgb(0,0,255)" /><sodipodi:guide position="225.05109,1693.3186" orientation="0,1" id="guide44" inkscape:label="" inkscape:locked="false" inkscape:color="rgb(0,0,255)" /><sodipodi:guide position="0,900" orientation="0,1" id="guide46" inkscape:label="" inkscape:locked="true" inkscape:color="rgb(0,0,255)" /><sodipodi:guide position="326.74154,464.47748" orientation="1,0" id="guide841" inkscape:label="width" />    <sodipodi:guide position="-210.85892,799.74293" orientation="0,-1" id="guide856" /></sodipodi:namedview>
 <svg:defs id="defs4"><inkscape:path-effect effect="fillet_chamfer" id="path-effect859" is_visible="true" lpeversion="1" satellites_param="F,0,1,1,0,23.149466,0,1 @ F,0,1,1,0,23.149466,0,1 @ F,0,0,1,0,0,0,1 @ F,0,0,1,0,0,0,1 @ F,0,0,1,0,0,0,1 @ F,0,0,1,0,0,0,1 @ F,0,0,1,0,0,0,1 @ F,0,0,1,0,0,0,1 @ F,0,1,1,0,23.149466,0,1 @ F,0,1,1,0,23.149466,0,1 @ F,0,0,1,0,0,0,1 @ F,0,0,1,0,0,0,1 @ F,0,0,1,0,0,0,1 @ F,0,0,1,0,0,0,1 @ F,0,0,1,0,0,0,1 @ F,0,0,1,0,0,0,1 @ F,0,0,1,0,0,0,1 @ F,0,0,1,0,0,0,1 @ F,0,1,1,0,23.149466,0,1 @ F,0,0,1,0,0,0,1" unit="px" method="auto" mode="F" radius="0" chamfer_steps="1" flexible="false" use_knot_distance="true" apply_no_radius="true" apply_with_radius="true" only_selected="true" hide_knots="false" /><inkscape:path-effect effect="spiro" id="path-effect862" is_visible="true" lpeversion="1" /><inkscape:path-effect effect="spiro" id="path-effect857" is_visible="true" lpeversion="1" /><inkscape:path-effect effect="spiro" id="path-effect137" is_visible="true" lpeversion="1" /><inkscape:path-effect effect="spiro" id="path-effect133" is_visible="true" lpeversion="1" /><inkscape:path-effect effect="spiro" id="path-effect114" is_visible="true" lpeversion="1" /><inkscape:path-effect effect="spiro" id="path-effect853" is_visible="true" lpeversion="1" /><inkscape:path-effect effect="spiro" id="path-effect928" is_visible="true" lpeversion="1" /><inkscape:path-effect effect="spiro" id="path-effect921" is_visible="true" lpeversion="1" /><inkscape:path-effect effect="spiro" id="path-effect917" is_visible="true" lpeversion="1" /><inkscape:path-effect effect="spiro" id="path-effect849" is_visible="true" lpeversion="1" /><inkscape:path-effect effect="spiro" id="path-effect851" is_visible="true" lpeversion="1" />
  <svg:style type="text/css" id="style2">
   
    .fil0 {fill:#EF7F1A;fill-rule:nonzero}
   
  </svg:style>
 <inkscape:path-effect effect="spiro" id="path-effect1214" is_visible="true" lpeversion="1" /><inkscape:path-effect effect="spiro" id="path-effect1195" is_visible="true" lpeversion="1" /><inkscape:path-effect effect="spiro" id="path-effect992" is_visible="true" lpeversion="1" /><inkscape:path-effect effect="spiro" id="path-effect1060" is_visible="true" lpeversion="1" /><inkscape:path-effect effect="spiro" id="path-effect1047" is_visible="true" lpeversion="1" /><inkscape:path-effect effect="spiro" id="path-effect1085" is_visible="true" lpeversion="1" /><inkscape:path-effect effect="spiro" id="path-effect1286" is_visible="true" lpeversion="1" /><inkscape:path-effect effect="spiro" id="path-effect117" is_visible="true" lpeversion="1" /></svg:defs>

<svg:g id="path860"><svg:path style="color:#000000;clip-rule:nonzero;fill:#1a5fb4;fill-rule:nonzero;stroke-linecap:round;stroke-linejoin:round;-inkscape-stroke:none;paint-order:fill stroke markers;shape-rendering:auto" d="M 181.37695,726.27539 C 152.35460999999998,725.6592400000001 129.14515,749.12908 126.78125,776.2988300000001 C 124.82782,798.7507300000001 119.38798,820.9502000000001 110.71484,841.7050800000001 C 103.41942,859.1630700000001 93.802191,875.7117900000001 82.246094,890.73242 C 75.092525,900.0306400000001 66.492571,915.6148800000001 75.275391,934.20898 C 79.66680099999999,943.50603 88.040578,949.79155 95.126953,952.67773 C 102.21333,955.56391 108.478,956.13981 114.43555,956.0957 C 128.99133,955.98794 143.55093,956.4016799999999 158.07617,957.3359399999999 C 176.91665999999998,958.54775 193.32271,960.906 205.625,966.5527299999999 C 211.70637,969.3440799999998 216.84611,972.9454499999999 220.50977,976.8554699999999 C 224.09711000000001,980.6840399999999 226.49501,985.1720799999998 227.38867,989.0078099999998 C 228.81633,995.1354999999999 226.74403999999998,1004.3100999999998 221.81835999999998,1010.6249999999999 C 216.61207,1017.2995999999999 207.44935999999998,1022.8266999999998 197.41016,1024.9785 C 187.10632999999999,1027.1870999999999 175.00603999999998,1026.3636 163.125,1022.7929999999999 C 151.12074,1019.1852999999999 138.97171,1012.8055999999999 127.05469,1004.6366999999999 C 111.90553,994.25227 98.122061,981.7657899999999 86.25195299999999,967.70508 C 78.07341799999999,958.01721 64.30648699999999,948.5618 46.980468999999985,950.70508 C 29.654450999999984,952.84836 17.729166999999986,966.63154 12.779296999999985,978.7968699999999 L -15.521484000000015,1048.3516 C -25.980957000000014,1074.0579 -21.514840000000014,1101.2142999999999 2.3964843999999843,1119.9785 C 58.37460499999998,1163.9068 132.50878,1182.5473 202.79492,1168.8477 C 234.97782999999998,1162.5748 266.71929,1149.6317000000001 293.63281,1128.3027 C 320.69865,1106.8531 342.06961,1077.2818 351.41797,1042.4706999999999 C 363.23722000000004,998.4586199999999 354.16632000000004,950.8531499999999 326.99023,914.2714799999999 C 312.04452,894.1530999999999 292.2299,878.5163499999999 269.93164,868.1035199999999 C 273.52999,863.7323799999999 277.02121,859.2700999999998 280.30469,854.6503899999999 C 294.30322,834.9550699999999 305.24709,813.2099699999999 312.77148,790.3007799999999 C 317.49738,775.9120599999999 314.94023,758.7514299999999 305.79296999999997,746.8183599999999 C 296.64570999999995,734.8852899999998 282.16168,728.4151699999999 267.75780999999995,728.1093699999999 L 181.37695,726.27539 M 185.94141,786.38477 L 249.48047,787.73437 C 244.52918,799.03306 238.52057,809.87009 231.39844,819.89062 C 220.59251,835.0941 207.35644,848.6561 192.41992,859.82812 A 30.003,30.003 0.0 0,0 184.98436999999998,899.71875 C 177.0364,898.68564 169.24676,897.9317 161.92773,897.46094 C 158.00624,897.20871 154.07753,897.09717 150.15234,896.9140600000001 C 156.13309,886.5827 161.46426000000002,875.8715100000001 166.07422,864.8398400000001 C 176.53214,839.8139800000001 183.11942,813.3130700000002 185.94141,786.3847700000001 L 185.94141,786.38477 M 260.27539,931.99023 C 267.35094000000004,937.16747 273.72946,943.19207 278.82617,950.05273 C 294.58279,971.26268 300.32347,1001.3901 293.47069999999997,1026.9082 C 287.93163,1047.5344 274.28846999999996,1067.0767 256.36718999999994,1081.2793000000001 C 238.29358999999994,1095.6026000000002 215.47271999999992,1105.2463000000002 191.31444999999994,1109.9551000000001 C 139.18351999999993,1120.1161000000002 81.40384499999993,1105.71 39.43749999999994,1072.7773000000002 C 43.24359199999994,1075.7641 40.87726299999994,1068.9412000000002 40.054686999999944,1070.9629000000002 L 58.51171899999994,1025.5996000000002 C 69.24978399999995,1036.0225000000003 80.76446899999993,1045.6481000000003 93.13085899999994,1054.1250000000002 C 108.60433999999995,1064.7318000000002 126.05697999999995,1074.3038000000001 145.85546999999994,1080.2539000000002 C 165.77717999999993,1086.2410000000002 187.81781999999993,1088.3977000000002 209.98436999999996,1083.6465 C 232.41554999999997,1078.8385 253.91106999999994,1067.0351 269.12890999999996,1047.5254 C 284.62733999999995,1027.6559 291.92972999999995,1001.6086 285.82226999999995,975.39453 C 282.2014899999999,959.85371 274.30904999999996,946.5197000000001 264.29296999999997,935.8300800000001 C 263.00685999999996,934.45748 261.61722999999995,933.2667600000001 260.27538999999996,931.9902300000001 L 260.27539,931.99023" id="path17493" /></svg:g></svg:svg>

<svg:svg xmlns:cc="http://creativecommons.org/ns#" xmlns:dc="http://purl.org/dc/elements/1.1/" xmlns:inkscape="http://www.inkscape.org/namespaces/inkscape" xmlns:rdf="http://www.w3.org/1999/02/22-rdf-syntax-ns#" xmlns:sodipodi="http://sodipodi.sourceforge.net/DTD/sodipodi-0.dtd" xmlns:svg="http://www.w3.org/2000/svg" xml:space="preserve" width="1000" height="1000" version="1.1" style="clip-rule:evenodd;fill-rule:evenodd;image-rendering:optimizeQuality;shape-rendering:geometricPrecision;text-rendering:geometricPrecision" viewBox="0 0 1000 1000" id="svg10" sodipodi:docname="cedilla.svg" inkscape:version="1.1.1 (3bf5ae0d25, 2021-09-20)"><svg:text text-anchor="middle" x="213.84598" y="805.09558" id="bottom" inkscape:label="bottom" style="clip-rule:evenodd;fill-rule:evenodd;image-rendering:optimizeQuality;shape-rendering:geometricPrecision;text-rendering:geometricPrecision">✛</svg:text><svg:metadata id="metadata14"><rdf:RDF><cc:Work rdf:about=""><dc:format>image/svg+xml</dc:format><dc:type rdf:resource="http://purl.org/dc/dcmitype/StillImage" /><dc:title /></cc:Work></rdf:RDF></svg:metadata><sodipodi:namedview pagecolor="#ffffff" bordercolor="#666666" borderopacity="1" objecttolerance="10" gridtolerance="10" guidetolerance="10" inkscape:pageopacity="0" inkscape:pageshadow="2" inkscape:window-width="1920" inkscape:window-height="1009" id="namedview12" showgrid="false" inkscape:zoom="0.84890884" inkscape:cx="298.61864" inkscape:cy="848.14761" inkscape:window-x="0" inkscape:window-y="60" inkscape:window-maximized="1" inkscape:current-layer="svg10" showguides="true" inkscape:guide-bbox="true" inkscape:document-rotation="0" inkscape:pagecheckerboard="0"><sodipodi:guide position="0,1000" orientation="0,1" id="guide16" inkscape:label="" inkscape:locked="true" inkscape:color="rgb(0,0,255)" /><sodipodi:guide position="1763.3122,2036.1693" orientation="1000,0" id="guide18" /><sodipodi:guide position="0,200" orientation="0,1" id="guide20" inkscape:label="base" inkscape:locked="true" inkscape:color="rgb(0,0,255)" /><inkscape:grid type="xygrid" id="grid24" originx="-473.37552" originy="-489.69235" /><sodipodi:guide position="0,0" orientation="0,1" id="guide34" inkscape:label="bottom" inkscape:locked="true" inkscape:color="rgb(0,0,255)" /><sodipodi:guide position="225.05109,1693.3186" orientation="0,1" id="guide44" inkscape:label="" inkscape:locked="false" inkscape:color="rgb(0,0,255)" /><sodipodi:guide position="0,900" orientation="0,1" id="guide46" inkscape:label="" inkscape:locked="true" inkscape:color="rgb(0,0,255)" /><sodipodi:guide position="326.74154,464.47748" orientation="1,0" id="guide841" inkscape:label="width" />    <sodipodi:guide position="-210.85892,799.74293" orientation="0,-1" id="guide856" /></sodipodi:namedview>
 <svg:defs id="defs4"><inkscape:path-effect effect="fillet_chamfer" id="path-effect859" is_visible="true" lpeversion="1" satellites_param="F,0,1,1,0,23.149466,0,1 @ F,0,1,1,0,23.149466,0,1 @ F,0,0,1,0,0,0,1 @ F,0,0,1,0,0,0,1 @ F,0,0,1,0,0,0,1 @ F,0,0,1,0,0,0,1 @ F,0,0,1,0,0,0,1 @ F,0,0,1,0,0,0,1 @ F,0,1,1,0,23.149466,0,1 @ F,0,1,1,0,23.149466,0,1 @ F,0,0,1,0,0,0,1 @ F,0,0,1,0,0,0,1 @ F,0,0,1,0,0,0,1 @ F,0,0,1,0,0,0,1 @ F,0,0,1,0,0,0,1 @ F,0,0,1,0,0,0,1 @ F,0,0,1,0,0,0,1 @ F,0,0,1,0,0,0,1 @ F,0,1,1,0,23.149466,0,1 @ F,0,0,1,0,0,0,1" unit="px" method="auto" mode="F" radius="0" chamfer_steps="1" flexible="false" use_knot_distance="true" apply_no_radius="true" apply_with_radius="true" only_selected="true" hide_knots="false" /><inkscape:path-effect effect="spiro" id="path-effect862" is_visible="true" lpeversion="1" /><inkscape:path-effect effect="spiro" id="path-effect857" is_visible="true" lpeversion="1" /><inkscape:path-effect effect="spiro" id="path-effect137" is_visible="true" lpeversion="1" /><inkscape:path-effect effect="spiro" id="path-effect133" is_visible="true" lpeversion="1" /><inkscape:path-effect effect="spiro" id="path-effect114" is_visible="true" lpeversion="1" /><inkscape:path-effect effect="spiro" id="path-effect853" is_visible="true" lpeversion="1" /><inkscape:path-effect effect="spiro" id="path-effect928" is_visible="true" lpeversion="1" /><inkscape:path-effect effect="spiro" id="path-effect921" is_visible="true" lpeversion="1" /><inkscape:path-effect effect="spiro" id="path-effect917" is_visible="true" lpeversion="1" /><inkscape:path-effect effect="spiro" id="path-effect849" is_visible="true" lpeversion="1" /><inkscape:path-effect effect="spiro" id="path-effect851" is_visible="true" lpeversion="1" />
  <svg:style type="text/css" id="style2">
   
    .fil0 {fill:#EF7F1A;fill-rule:nonzero}
   
  </svg:style>
 <inkscape:path-effect effect="spiro" id="path-effect1214" is_visible="true" lpeversion="1" /><inkscape:path-effect effect="spiro" id="path-effect1195" is_visible="true" lpeversion="1" /><inkscape:path-effect effect="spiro" id="path-effect992" is_visible="true" lpeversion="1" /><inkscape:path-effect effect="spiro" id="path-effect1060" is_visible="true" lpeversion="1" /><inkscape:path-effect effect="spiro" id="path-effect1047" is_visible="true" lpeversion="1" /><inkscape:path-effect effect="spiro" id="path-effect1085" is_visible="true" lpeversion="1" /><inkscape:path-effect effect="spiro" id="path-effect1286" is_visible="true" lpeversion="1" /><inkscape:path-effect effect="spiro" id="path-effect117" is_visible="true" lpeversion="1" /></svg:defs>

<svg:g id="path860"><svg:path style="color:#000000;clip-rule:nonzero;fill:#1a5fb4;fill-rule:nonzero;stroke-linecap:round;stroke-linejoin:round;-inkscape-stroke:none;shape-rendering:auto" d="m 181.37695,726.27539 c -29.02234,-0.61615 -52.2318,22.85369 -54.5957,50.02344 -1.95343,22.4519 -7.39327,44.65137 -16.06641,65.40625 -7.29542,17.45799 -16.912649,34.00671 -28.468746,49.02734 -7.153569,9.29822 -15.753523,24.88246 -6.970703,43.47656 4.39141,9.29705 12.765187,15.58257 19.851562,18.46875 7.086377,2.88618 13.351047,3.46208 19.308597,3.41797 14.55578,-0.10776 29.11538,0.30598 43.64062,1.24024 18.84049,1.21181 35.24654,3.57006 47.54883,9.21679 6.08137,2.79135 11.22111,6.39272 14.88477,10.30274 3.58734,3.82857 5.98524,8.31661 6.8789,12.15234 1.42766,6.12769 -0.64463,15.30229 -5.57031,21.61719 -5.20629,6.6746 -14.369,12.2017 -24.4082,14.3535 -10.30383,2.2086 -22.40412,1.3851 -34.28516,-2.1855 -12.00426,-3.6077 -24.15329,-9.9874 -36.07031,-18.1563 -15.14916,-10.38443 -28.932629,-22.87091 -40.802737,-36.93162 -8.178535,-9.68787 -21.945466,-19.14328 -39.271484,-17 -17.326018,2.14328 -29.251302,15.92646 -34.201172,28.09179 l -28.300781,69.55473 c -10.459473,25.7063 -5.993356,52.8627 17.9179684,71.6269 55.9781206,43.9283 130.1122956,62.5688 200.3984356,48.8692 32.18291,-6.2729 63.92437,-19.216 90.83789,-40.545 27.06584,-21.4496 48.4368,-51.0209 57.78516,-85.832 11.81925,-44.01208 2.74835,-91.61755 -24.42774,-128.19922 -14.94571,-20.11838 -34.76033,-35.75513 -57.05859,-46.16796 3.59835,-4.37114 7.08957,-8.83342 10.37305,-13.45313 13.99853,-19.69532 24.9424,-41.44042 32.46679,-64.34961 4.7259,-14.38872 2.16875,-31.54935 -6.97851,-43.48242 -9.14726,-11.93307 -23.63129,-18.40319 -38.03516,-18.70899 z m 4.56446,60.10938 63.53906,1.3496 c -4.95129,11.29869 -10.9599,22.13572 -18.08203,32.15625 -10.80593,15.20348 -24.042,28.76548 -38.97852,39.9375 a 30.003,30.003 0 0 0 -7.43555,39.89063 c -7.94797,-1.03311 -15.73761,-1.78705 -23.05664,-2.25781 -3.92149,-0.25223 -7.8502,-0.36377 -11.77539,-0.54688 5.98075,-10.33136 11.31192,-21.04255 15.92188,-32.07422 10.45792,-25.02586 17.0452,-51.52677 19.86719,-78.45507 z m 74.33398,145.60546 c 7.07555,5.17724 13.45407,11.20184 18.55078,18.0625 15.75662,21.20995 21.4973,51.33737 14.64453,76.85547 -5.53907,20.6262 -19.18223,40.1685 -37.10351,54.3711 -18.0736,14.3233 -40.89447,23.967 -65.05274,28.6758 -52.13093,10.161 -109.910605,-4.2451 -151.87695,-37.1778 3.806092,2.9868 1.439763,-3.8361 0.617187,-1.8144 l 18.457032,-45.3633 c 10.738065,10.4229 22.25275,20.0485 34.61914,28.5254 15.473481,10.6068 32.926121,20.1788 52.724611,26.1289 19.92171,5.9871 41.96235,8.1438 64.1289,3.3926 22.43118,-4.808 43.9267,-16.6114 59.14454,-36.1211 15.49843,-19.8695 22.80082,-45.9168 16.69336,-72.13087 -3.62078,-15.54082 -11.51322,-28.87483 -21.5293,-39.56445 -1.28611,-1.3726 -2.67574,-2.56332 -4.01758,-3.83985 z" id="path17441" /></svg:g></svg:svg>
